X:252
T:Waltzing Matilda
R:Hornpipe
O:Australia
M:4/4
K:G
|:"G"B2B2 "D"A2A2|"G"GABG "Em"EFG2|"G"D2GB d2dd|"Em"e2dB "D"A2GA|\
"G"(3BBB B2 "Am"(3AAA A2|"G"GABG "Em"EFG2|\
"G"D2GB d2cB|"D"A2A2 "G"G4::\
"G"d2d>d d2B2|"Em"g2g>g f2e2|"G"d2dd "C"e2dd|"G"d2cB "D"A2GA|\
"G"B2B2 "Am"A2A2|"Em"GABG "C"EFG2|"G"D2GB d2cB|"D"A2A2 "G"G4:|
